Rock-Scissor-Paper/src/assets/ic-reset.svg

<svg xmlns="http://www.w3.org/2000/svg" xmlns:xlink="http://www.w3.org/1999/xlink" width="64" height="62" viewBox="0 0 64 62">
    <defs>
        <filter id="rz7yyy1rwa" width="140.4%" height="142%" x="-20.2%" y="-15%" filterUnits="objectBoundingBox">
            <feOffset dy="3" in="SourceAlpha" result="shadowOffsetOuter1"/>
            <feGaussianBlur in="shadowOffsetOuter1" result="shadowBlurOuter1" stdDeviation="3"/>
            <feColorMatrix in="shadowBlurOuter1" values="0 0 0 0 0.219607843 0 0 0 0 0.0588235294 0 0 0 0 0.431372549 0 0 0 0.440805288 0"/>
        </filter>
        <filter id="9bury0udmc" width="111.5%" height="137.5%" x="-5.8%" y="-18.8%" filterUnits="objectBoundingBox">
            <feGaussianBlur in="SourceGraphic" stdDeviation="1"/>
        </filter>
        <filter id="6yk6ffa5zd" width="111.5%" height="137.5%" x="-5.8%" y="-18.8%" filterUnits="objectBoundingBox">
            <feGaussianBlur in="SourceGraphic" stdDeviation="1"/>
        </filter>
        <rect id="khldhi74eb" width="52" height="50" x="6" y="3" rx="14"/>
    </defs>
    <g fill="none" fill-rule="evenodd">
        <g>
            <g>
                <g transform="translate(-1157 -98) translate(1157 98)">
                    <use fill="#000" filter="url(#rz7yyy1rwa)" xlink:href="#khldhi74eb"/>
                    <use fill="#FC0" xlink:href="#khldhi74eb"/>
                </g>
                <path fill="#000" d="M6 37c0 7.732 6.268 14 14 14h24c7.732 0 14-6.268 14-14v2c0 7.732-6.268 14-14 14H20c-7.732 0-14-6.268-14-14z" filter="url(#9bury0udmc)" opacity=".232" transform="translate(-1157 -98) translate(1157 98)"/>
                <path fill="#FFF" d="M6 3c0 7.732 6.268 14 14 14h24c7.732 0 14-6.268 14-14v2c0 7.732-6.268 14-14 14H20C12.268 19 6 12.732 6 5z" filter="url(#6yk6ffa5zd)" opacity=".563" transform="translate(-1157 -98) translate(1157 98) matrix(1 0 0 -1 0 22)"/>
                <path fill="#FFF" fill-rule="nonzero" d="M41.754 16.638l.054.143 1.333 3.993c.185.559.09 1.172-.254 1.644-.328.46-.848.742-1.39.769h-4.164c-1.012 0-1.833-.82-1.833-1.839.007-.424.16-.82.417-1.132l.07-.078c-3.96-2-8.84-.755-11.331 2.968l-.147.227c-2.585 4.127-1.328 9.563 2.809 12.143 4.137 2.58 9.587 1.325 12.173-2.803.876-1.399 1.341-3.015 1.342-4.665 0-1.01.821-1.83 1.834-1.83 1.012 0 1.833.82 1.833 1.83.01 6.889-5.577 12.481-12.48 12.492-6.904.01-12.51-5.565-12.52-12.454-.01-6.889 5.577-12.482 12.48-12.492 2.03-.003 4.021.486 5.806 1.416l.388.212.015-.114c.1-.619.51-1.166 1.118-1.421l.144-.054c.931-.305 1.93.16 2.303 1.045z" transform="translate(-1157 -98) translate(1157 98)"/>
            </g>
        </g>
    </g>
</svg>

<svg width="64" height="62" viewBox="0 0 64 62" fill="none" xmlns="http://www.w3.org/2000/svg">
<g clip-path="url(#clip0_1_3)">
<g filter="url(#filter0_d_1_3)">
<path d="M44 3H20C12.268 3 6 9.26801 6 17V39C6 46.732 12.268 53 20 53H44C51.732 53 58 46.732 58 39V17C58 9.26801 51.732 3 44 3Z" fill="black"/>
</g>
<path d="M44 3H20C12.268 3 6 9.26801 6 17V39C6 46.732 12.268 53 20 53H44C51.732 53 58 46.732 58 39V17C58 9.26801 51.732 3 44 3Z" fill="#FF69B4"/>
<g opacity="0.232" filter="url(#filter1_f_1_3)">
<path fill-rule="evenodd" clip-rule="evenodd" d="M6 37C6 44.732 12.268 51 20 51H44C51.732 51 58 44.732 58 37V39C58 46.732 51.732 53 44 53H20C12.268 53 6 46.732 6 39V37Z" fill="black"/>
</g>
<g opacity="0.563" filter="url(#filter2_f_1_3)">
<path fill-rule="evenodd" clip-rule="evenodd" d="M6 19C6 11.268 12.268 5 20 5H44C51.732 5 58 11.268 58 19V17C58 9.268 51.732 3 44 3H20C12.268 3 6 9.268 6 17V19Z" fill="white"/>
</g>
<path d="M41.754 16.638L41.808 16.781L43.141 20.774C43.326 21.333 43.231 21.946 42.887 22.418C42.559 22.878 42.039 23.16 41.497 23.187H37.333C36.321 23.187 35.5 22.367 35.5 21.348C35.507 20.924 35.66 20.528 35.917 20.216L35.987 20.138C32.027 18.138 27.147 19.383 24.656 23.106L24.509 23.333C21.924 27.46 23.181 32.896 27.318 35.476C31.455 38.056 36.905 36.801 39.491 32.673C40.367 31.274 40.832 29.658 40.833 28.008C40.833 26.998 41.654 26.178 42.667 26.178C43.679 26.178 44.5 26.998 44.5 28.008C44.51 34.897 38.923 40.489 32.02 40.5C25.116 40.51 19.51 34.935 19.5 28.046C19.49 21.157 25.077 15.564 31.98 15.554C34.01 15.551 36.001 16.04 37.786 16.97L38.174 17.182L38.189 17.068C38.289 16.449 38.699 15.902 39.307 15.647L39.451 15.593C40.382 15.288 41.381 15.753 41.754 16.638Z" fill="white"/>
</g>
<defs>
<filter id="filter0_d_1_3" x="0" y="0" width="64" height="62" filterUnits="userSpaceOnUse" color-interpolation-filters="sRGB">
<feFlood flood-opacity="0" result="BackgroundImageFix"/>
<feColorMatrix in="SourceAlpha" type="matrix" values="0 0 0 0 0 0 0 0 0 0 0 0 0 0 0 0 0 0 127 0" result="hardAlpha"/>
<feOffset dy="3"/>
<feGaussianBlur stdDeviation="3"/>
<feColorMatrix type="matrix" values="0 0 0 0 0.219608 0 0 0 0 0.0588235 0 0 0 0 0.431373 0 0 0 0.440805 0"/>
<feBlend mode="normal" in2="BackgroundImageFix" result="effect1_dropShadow_1_3"/>
<feBlend mode="normal" in="SourceGraphic" in2="effect1_dropShadow_1_3" result="shape"/>
</filter>
<filter id="filter1_f_1_3" x="5" y="36" width="54" height="18" filterUnits="userSpaceOnUse" color-interpolation-filters="sRGB">
<feFlood flood-opacity="0" result="BackgroundImageFix"/>
<feBlend mode="normal" in="SourceGraphic" in2="BackgroundImageFix" result="shape"/>
<feGaussianBlur stdDeviation="0.5" result="effect1_foregroundBlur_1_3"/>
</filter>
<filter id="filter2_f_1_3" x="5" y="2" width="54" height="18" filterUnits="userSpaceOnUse" color-interpolation-filters="sRGB">
<feFlood flood-opacity="0" result="BackgroundImageFix"/>
<feBlend mode="normal" in="SourceGraphic" in2="BackgroundImageFix" result="shape"/>
<feGaussianBlur stdDeviation="0.5" result="effect1_foregroundBlur_1_3"/>
</filter>
<clipPath id="clip0_1_3">
<rect width="64" height="62" fill="white"/>
</clipPath>
</defs>
</svg>
